X:1
T:The Dowie Dens of Yarrow
M:4/4
L:1/8
K:C
 C2| C2 c2 c3 d| c2B-A G3 G| A2 d2 c3 e| d3- c A2| BB| c2 d2 c3 A|\
G-FE-D C2 DE| F2E-D A2G-E| D4 D2||

